X: 25
M:3/4
L:1/8
K:G
"Andante"G/2D/2E|G3 A B2|AG G3 A|B2 AG E2|G4 B2|
cd/2e/2 d2 BA|G2 EG A2|d2 e2 de| B2 AG A2|B2 AG E2|

